src/assets/img/icons/duotone-icons/Communication/Urgent-mail.svg

<?xml version="1.0" encoding="UTF-8"?>
<svg width="24px" height="24px" viewBox="0 0 24 24" version="1.1" xmlns="http://www.w3.org/2000/svg" xmlns:xlink="http://www.w3.org/1999/xlink">
    <!-- Generator: Sketch 52.2 (67145) - http://www.bohemiancoding.com/sketch -->
    <title>Stockholm-icons / Communication / Urgent-mail</title>
    <desc>Created with Sketch.</desc>
    <g id="Stockholm-icons-/-Communication-/-Urgent-mail" stroke="none" stroke-width="1" fill="none" fill-rule="evenodd">
        <rect id="bound" x="0" y="0" width="24" height="24"></rect>
        <path d="M12.7037037,14 L15.6666667,10 L13.4444444,10 L13.4444444,6 L9,12 L11.2222222,12 L11.2222222,14 L6,14 C5.44771525,14 5,13.5522847 5,13 L5,3 C5,2.44771525 5.44771525,2 6,2 L18,2 C18.5522847,2 19,2.44771525 19,3 L19,13 C19,13.5522847 18.5522847,14 18,14 L12.7037037,14 Z" id="Combined-Shape" fill="#335EEA" opacity="0.3"></path>
        <path d="M9.80428954,10.9142091 L9,12 L11.2222222,12 L11.2222222,16 L15.6666667,10 L15.4615385,10 L20.2072547,6.57253826 C20.4311176,6.4108595 20.7436609,6.46126971 20.9053396,6.68513259 C20.9668779,6.77033951 21,6.87277228 21,6.97787787 L21,17 C21,18.1045695 20.1045695,19 19,19 L5,19 C3.8954305,19 3,18.1045695 3,17 L3,6.97787787 C3,6.70173549 3.22385763,6.47787787 3.5,6.47787787 C3.60510559,6.47787787 3.70753836,6.51099993 3.79274528,6.57253826 L9.80428954,10.9142091 Z" id="Combined-Shape" fill="#335EEA"></path>
    </g>
</svg>

<svg width="24" height="24" viewBox="0 0 24 24" xmlns="http://www.w3.org/2000/svg"><g fill="none" fill-rule="evenodd"><path d="M0 0h24v24H0z"/><path d="M12.704 14l2.963-4h-2.223V6L9 12h2.222v2H6a1 1 0 01-1-1V3a1 1 0 011-1h12a1 1 0 011 1v10a1 1 0 01-1 1h-5.296z" fill="#335EEA" opacity=".3"/><path d="M9.804 10.914L9 12h2.222v4l4.445-6h-.205l4.745-3.427a.5.5 0 01.793.405V17a2 2 0 01-2 2H5a2 2 0 01-2-2V6.978a.5.5 0 01.793-.405l6.011 4.341z" fill="#335EEA"/></g></svg>
